images/under-construction.svg

<svg id="Capa_1" enable-background="new 0 0 512 512" height="512" viewBox="0 0 512 512" width="512" xmlns="http://www.w3.org/2000/svg"><path d="m462.041 193.862c2.68 0 5.237-1.098 7.102-3 .112-.11.225-.22.329-.335.013-.015.028-.027.041-.042.055-.062.102-.129.155-.192.087-.105.176-.209.257-.319 1.338-1.731 2.075-3.859 2.075-6.072v-63.111c0-5.491-4.468-9.959-9.959-9.959h-53.79v-27.905c12.715-7.924 21.199-22.027 21.199-38.081-.001-24.728-20.118-44.846-44.847-44.846s-44.846 20.118-44.846 44.846c0 16.056 8.486 30.16 21.203 38.084v27.903h-209.92v-27.903c12.717-7.924 21.203-22.028 21.203-38.084 0-24.728-20.118-44.846-44.846-44.846s-44.846 20.118-44.846 44.846c0 16.054 8.484 30.157 21.199 38.081v27.906h-53.79c-2.59 0-5.061 1.014-6.951 2.841-.186.172-.361.351-.526.538-.02.022-.043.041-.063.064-.047.055-.088.114-.134.17-.08.098-.16.196-.234.298-1.322 1.735-2.052 3.857-2.052 6.048v63.111c0 5.491 4.468 9.959 9.959 9.959h39.04l-4.866 38.748h-34.173c-2.58 0-5.043 1.006-6.935 2.824-.193.178-.375.364-.546.558-.02.022-.043.042-.063.064-.047.054-.087.114-.133.169-.08.098-.159.196-.233.297-1.321 1.735-2.05 3.857-2.05 6.047v63.11c0 5.491 4.468 9.959 9.959 9.959h23.739l-23.17 184.341c-.384 3.041.558 6.104 2.584 8.402 2.027 2.3 4.949 3.619 8.017 3.619h45.95c5.378 0 9.94-4.021 10.611-9.355l9.42-74.98c.517-4.11-2.396-7.86-6.506-8.376-4.124-.523-7.86 2.397-8.376 6.506l-8.945 71.205h-37.261l22.795-181.362h37.261l-9.47 75.307c-.517 4.109 2.396 7.86 6.506 8.377.317.04.633.06.945.06 3.725 0 6.955-2.773 7.432-6.565l3.542-28.166h241.931l17.345 137.997c.671 5.332 5.233 9.353 10.611 9.353h45.95c3.067 0 5.989-1.319 8.017-3.619 2.026-2.299 2.968-5.361 2.584-8.396l-9.34-74.33c-.517-4.11-4.266-7.03-8.376-6.506-4.11.516-7.023 4.267-6.506 8.376l8.729 69.474h-37.261l-22.796-181.362h37.262l9.695 77.157c.477 3.792 3.707 6.566 7.432 6.566.312 0 .627-.02.944-.06 4.11-.517 7.023-4.267 6.506-8.376l-9.46-75.287h23.74c2.671 0 5.219-1.091 7.086-2.984.119-.115.237-.231.347-.353.013-.015.028-.028.042-.042.054-.061.1-.127.152-.189.088-.106.177-.211.259-.321 1.337-1.731 2.074-3.859 2.074-6.07v-63.11c0-5.491-4.468-9.959-9.959-9.959h-34.173l-4.866-38.748zm-50.109 53.747 37.976 53.028h-29.801l-37.972-53.028zm-50.254 53.029-37.974-53.028h39.982l37.972 53.028zm-48.25 0-37.973-53.028h29.8l37.974 53.028zm-58.431 0-37.973-53.028h39.981l37.974 53.028zm-48.249 0-37.974-53.028h29.801l37.974 53.028zm-58.435 0-37.972-53.028h39.983l37.974 53.028zm-48.245 0-37.969-53.028h29.794l37.972 53.028zm0-121.776-37.969-53.029h29.794l37.972 53.029zm50.257-53.029 37.974 53.029h-39.985l-37.972-53.029zm48.25 0 37.974 53.029h-29.8l-37.974-53.029zm58.43 0 37.974 53.029h-39.981l-37.974-53.029zm48.25 0 37.974 53.029h-29.801l-37.974-53.029zm3.725 106.776c-.037 0-.073-.001-.109 0h-157.24l4.866-38.748h199.007l4.866 38.748zm52.987-53.747h-.289l-37.974-53.029h39.982l37.972 53.029zm49.965-53.029 37.976 53.029h-29.802l-37.972-53.029zm45.068 37.168-26.617-37.168h26.617zm-72.397-148.001c16.457 0 29.846 13.389 29.846 29.846s-13.389 29.846-29.846 29.846-29.846-13.389-29.846-29.846 13.389-29.846 29.846-29.846zm-8.643 73.848c2.798.549 5.686.844 8.643.844 2.958 0 5.847-.296 8.647-.845v21.985h-17.29zm-248.563-73.848c16.457 0 29.846 13.389 29.846 29.846s-13.389 29.846-29.846 29.846-29.846-13.389-29.846-29.846 13.389-29.846 29.846-29.846zm-8.647 73.848c2.8.549 5.689.845 8.647.845 2.957 0 5.845-.295 8.643-.844v21.985h-17.29zm-63.75 52.838 26.619 37.176h-26.619zm49.117 52.176h37.262l-4.866 38.748h-37.262zm-49.117 69.599 26.619 37.176h-26.619zm320.078 86.189h-238.159l4.277-34.012h229.607zm81.922-64.873-26.617-37.168h26.617zm-81.513-52.168-4.866-38.748h37.262l4.866 38.748z"/></svg>

<svg width="512" height="512" viewBox="0 0 512 512" fill="none" xmlns="http://www.w3.org/2000/svg">
<g clip-path="url(#clip0)">
<path d="M462.041 193.862C464.721 193.862 467.278 192.764 469.143 190.862C469.255 190.752 469.368 190.642 469.472 190.527C469.485 190.512 469.5 190.5 469.513 190.485C469.568 190.423 469.615 190.356 469.668 190.293C469.755 190.188 469.844 190.084 469.925 189.974C471.263 188.243 472 186.115 472 183.902V120.791C472 115.3 467.532 110.832 462.041 110.832H408.251V82.927C420.966 75.003 429.45 60.9 429.45 44.846C429.449 20.118 409.332 0 384.603 0C359.874 0 339.757 20.118 339.757 44.846C339.757 60.902 348.243 75.006 360.96 82.93V110.833H151.04V82.93C163.757 75.006 172.243 60.902 172.243 44.846C172.243 20.118 152.125 0 127.397 0C102.669 0 82.551 20.118 82.551 44.846C82.551 60.9 91.035 75.003 103.75 82.927V110.833H49.96C47.37 110.833 44.899 111.847 43.009 113.674C42.823 113.846 42.648 114.025 42.483 114.212C42.463 114.234 42.44 114.253 42.42 114.276C42.373 114.331 42.332 114.39 42.286 114.446C42.206 114.544 42.126 114.642 42.052 114.744C40.73 116.479 40 118.601 40 120.792V183.903C40 189.394 44.468 193.862 49.959 193.862H88.999L84.133 232.61H49.96C47.38 232.61 44.917 233.616 43.025 235.434C42.832 235.612 42.65 235.798 42.479 235.992C42.459 236.014 42.436 236.034 42.416 236.056C42.369 236.11 42.329 236.17 42.283 236.225C42.203 236.323 42.124 236.421 42.05 236.522C40.729 238.257 40 240.379 40 242.569V305.679C40 311.17 44.468 315.638 49.959 315.638H73.698L50.528 499.979C50.144 503.02 51.086 506.083 53.112 508.381C55.139 510.681 58.061 512 61.129 512H107.079C112.457 512 117.019 507.979 117.69 502.645L127.11 427.665C127.627 423.555 124.714 419.805 120.604 419.289C116.48 418.766 112.744 421.686 112.228 425.795L103.283 497H66.022L88.817 315.638H126.078L116.608 390.945C116.091 395.054 119.004 398.805 123.114 399.322C123.431 399.362 123.747 399.382 124.059 399.382C127.784 399.382 131.014 396.609 131.491 392.817L135.033 364.651H376.964L394.309 502.648C394.98 507.98 399.542 512.001 404.92 512.001H450.87C453.937 512.001 456.859 510.682 458.887 508.382C460.913 506.083 461.855 503.021 461.471 499.986L452.131 425.656C451.614 421.546 447.865 418.626 443.755 419.15C439.645 419.666 436.732 423.417 437.249 427.526L445.978 497H408.717L385.921 315.638H423.183L432.878 392.795C433.355 396.587 436.585 399.361 440.31 399.361C440.622 399.361 440.937 399.341 441.254 399.301C445.364 398.784 448.277 395.034 447.76 390.925L438.3 315.638H462.04C464.711 315.638 467.259 314.547 469.126 312.654C469.245 312.539 469.363 312.423 469.473 312.301C469.486 312.286 469.501 312.273 469.515 312.259C469.569 312.198 469.615 312.132 469.667 312.07C469.755 311.964 469.844 311.859 469.926 311.749C471.263 310.018 472 307.89 472 305.679V242.569C472 237.078 467.532 232.61 462.041 232.61H427.868L423.002 193.862H462.041ZM411.932 247.609L449.908 300.637H420.107L382.135 247.609H411.932ZM361.678 300.638L323.704 247.61H363.686L401.658 300.638H361.678ZM313.428 300.638L275.455 247.61H305.255L343.229 300.638H313.428ZM254.997 300.638L217.024 247.61H257.005L294.979 300.638H254.997ZM206.748 300.638L168.774 247.61H198.575L236.549 300.638H206.748ZM148.313 300.638L110.341 247.61H150.324L188.298 300.638H148.313ZM100.068 300.638L62.099 247.61H91.893L129.865 300.638H100.068ZM100.068 178.862L62.099 125.833H91.893L129.865 178.862H100.068ZM150.325 125.833L188.299 178.862H148.314L110.342 125.833H150.325ZM198.575 125.833L236.549 178.862H206.749L168.775 125.833H198.575ZM257.005 125.833L294.979 178.862H254.998L217.024 125.833H257.005ZM305.255 125.833L343.229 178.862H313.428L275.454 125.833H305.255ZM308.98 232.609C308.943 232.609 308.907 232.608 308.871 232.609H151.631L156.497 193.861H355.504L360.37 232.609H308.98ZM361.967 178.862H361.678L323.704 125.833H363.686L401.658 178.862H361.967ZM411.932 125.833L449.908 178.862H420.106L382.134 125.833H411.932ZM457 163.001L430.383 125.833H457V163.001ZM384.603 15C401.06 15 414.449 28.389 414.449 44.846C414.449 61.303 401.06 74.692 384.603 74.692C368.146 74.692 354.757 61.303 354.757 44.846C354.757 28.389 368.146 15 384.603 15V15ZM375.96 88.848C378.758 89.397 381.646 89.692 384.603 89.692C387.561 89.692 390.45 89.396 393.25 88.847V110.832H375.96V88.848ZM127.397 15C143.854 15 157.243 28.389 157.243 44.846C157.243 61.303 143.854 74.692 127.397 74.692C110.94 74.692 97.551 61.303 97.551 44.846C97.551 28.389 110.94 15 127.397 15V15ZM118.75 88.848C121.55 89.397 124.439 89.693 127.397 89.693C130.354 89.693 133.242 89.398 136.04 88.849V110.834H118.75V88.848ZM55 141.686L81.619 178.862H55V141.686ZM104.117 193.862H141.379L136.513 232.61H99.251L104.117 193.862ZM55 263.461L81.619 300.637H55V263.461ZM375.078 349.65H136.919L141.196 315.638H370.803L375.078 349.65ZM457 284.777L430.383 247.609H457V284.777ZM375.487 232.609L370.621 193.861H407.883L412.749 232.609H375.487Z" fill="white"/>
</g>
<defs>
<clipPath id="clip0">
<rect width="512" height="512" fill="white"/>
</clipPath>
</defs>
</svg>
